storybook/icons/teaser/web.svg

<svg width="87" height="86" viewBox="0 0 87 86" fill="none" xmlns="http://www.w3.org/2000/svg">
<g clip-path="url(#clip0)">
<path d="M70.4277 0H16.3322C12.4031 0.00462659 9.21898 3.18879 9.21436 7.11783V45.5541C9.21898 49.4831 12.4031 52.6673 16.3322 52.6719H35.798L33.7652 59.7898H29.1443V62.6369H57.6156V59.7898H52.9947L50.9618 52.6719H70.4277C74.3567 52.6673 77.5409 49.4831 77.5455 45.5541V7.11783C77.5409 3.18879 74.3567 0.00462659 70.4277 0ZM36.7262 59.7898L38.759 52.6719H48.0008L50.0337 59.7898H36.7262ZM74.6984 45.5541C74.6984 47.9128 72.7863 49.8248 70.4277 49.8248H16.3322C13.9735 49.8248 12.0615 47.9128 12.0615 45.5541V42.707H74.6984V45.5541ZM74.6984 39.8598H12.0615V7.11783C12.0615 4.75916 13.9735 2.84713 16.3322 2.84713H70.4277C72.7863 2.84713 74.6984 4.75916 74.6984 7.11783V39.8598Z" fill="black"/>
<path d="M54.7683 65.484H14.9084C14.1223 65.484 13.4849 66.1214 13.4849 66.9076V83.9904C13.4849 84.7765 14.1223 85.4139 14.9084 85.4139H54.7683C55.5544 85.4139 56.1918 84.7765 56.1918 83.9904V66.9076C56.1918 66.1214 55.5544 65.484 54.7683 65.484ZM53.3447 82.5668H16.332V68.3311H53.3447V82.5668Z" fill="black"/>
<path d="M22.0263 76.8726H19.1792V79.7197H22.0263V76.8726Z" fill="black"/>
<path d="M22.0263 71.1783H19.1792V74.0255H22.0263V71.1783Z" fill="black"/>
<path d="M27.7207 71.1783H24.8735V74.0255H27.7207V71.1783Z" fill="black"/>
<path d="M33.4148 71.1783H30.5676V74.0255H33.4148V71.1783Z" fill="black"/>
<path d="M44.8034 71.1783H41.9563V74.0255H44.8034V71.1783Z" fill="black"/>
<path d="M39.1091 71.1783H36.262V74.0255H39.1091V71.1783Z" fill="black"/>
<path d="M50.4978 76.8726H47.6506V79.7197H50.4978V76.8726Z" fill="black"/>
<path d="M50.4978 71.1783H47.6506V74.0255H50.4978V71.1783Z" fill="black"/>
<path d="M44.8034 76.8726H24.8735V79.7197H44.8034V76.8726Z" fill="black"/>
<path d="M66.1569 65.484C62.2259 65.484 59.0391 68.6708 59.0391 72.6018V78.2961C59.0391 82.2271 62.2259 85.4139 66.1569 85.4139C70.0879 85.4139 73.2747 82.2271 73.2747 78.2961V72.6018C73.2747 68.6708 70.0879 65.484 66.1569 65.484ZM70.4276 78.2961C70.4276 80.6548 68.5156 82.5668 66.1569 82.5668C63.7982 82.5668 61.8862 80.6548 61.8862 78.2961V72.6018C61.8862 70.2432 63.7982 68.3311 66.1569 68.3311C68.5156 68.3311 70.4276 70.2432 70.4276 72.6018V78.2961Z" fill="black"/>
<path d="M67.5805 71.1783H64.7334V74.0255H67.5805V71.1783Z" fill="black"/>
<path d="M44.8519 12.4505L39.1523 32.369L41.8884 33.1519L47.588 13.2334L44.8519 12.4505Z" fill="black"/>
<path d="M35.7494 16.7525L33.9273 14.5659L25.3859 21.6837C24.7821 22.1873 24.7008 23.0849 25.2044 23.6888C25.2593 23.7547 25.32 23.8155 25.3859 23.8703L33.9273 30.9882L35.7494 28.8016L28.5206 22.777L35.7494 16.7525Z" fill="black"/>
<path d="M61.5553 21.8652C61.5003 21.7994 61.4396 21.7386 61.3738 21.6837L52.8324 14.5659L51.0103 16.7525L58.2391 22.777L51.0103 28.8016L52.8324 30.9882L61.3738 23.8703C61.9776 23.3668 62.0589 22.4692 61.5553 21.8652Z" fill="black"/>
</g>
<defs>
<clipPath id="clip0">
<rect width="85.4139" height="85.4139" fill="white" transform="translate(0.672852)"/>
</clipPath>
</defs>
</svg>

<svg width="87" height="86" fill="none" xmlns="http://www.w3.org/2000/svg"><g clip-path="url(#clip0)" fill="#000"><path d="M70.428 0H16.332a7.126 7.126 0 00-7.118 7.118v38.436a7.126 7.126 0 007.118 7.118h19.466l-2.033 7.118h-4.62v2.847h28.47V59.79h-4.62l-2.033-7.118h19.466a7.126 7.126 0 007.118-7.118V7.118A7.126 7.126 0 0070.428 0zM36.726 59.79l2.033-7.118h9.242l2.033 7.118H36.726zm37.972-14.236a4.27 4.27 0 01-4.27 4.27H16.332a4.27 4.27 0 01-4.27-4.27v-2.847h62.636v2.847zm0-5.694H12.062V7.118a4.27 4.27 0 014.27-4.27h54.096a4.27 4.27 0 014.27 4.27V39.86zM54.768 65.484h-39.86c-.786 0-1.423.637-1.423 1.424V83.99c0 .787.637 1.424 1.423 1.424h39.86c.786 0 1.424-.638 1.424-1.424V66.908c0-.787-.638-1.424-1.424-1.424zm-1.423 17.083H16.332V68.33h37.013v14.236z"/><path d="M22.026 76.873H19.18v2.847h2.847v-2.847zM22.026 71.178H19.18v2.847h2.847v-2.847zM27.72 71.178h-2.846v2.847h2.847v-2.847zM33.415 71.178h-2.847v2.847h2.847v-2.847zM44.803 71.178h-2.847v2.847h2.847v-2.847zM39.11 71.178h-2.848v2.847h2.847v-2.847zM50.498 76.873H47.65v2.847h2.847v-2.847zM50.498 71.178H47.65v2.847h2.847v-2.847zM44.803 76.873h-19.93v2.847h19.93v-2.847zM66.157 65.484a7.118 7.118 0 00-7.118 7.118v5.694a7.118 7.118 0 0014.236 0v-5.694a7.118 7.118 0 00-7.118-7.118zm4.27 12.812a4.27 4.27 0 11-8.54 0v-5.694a4.27 4.27 0 118.54 0v5.694z"/><path d="M67.58 71.178h-2.847v2.847h2.847v-2.847zM44.852 12.45l-5.7 19.919 2.736.783 5.7-19.919-2.736-.783zM35.75 16.753l-1.823-2.187-8.541 7.118a1.424 1.424 0 000 2.186l8.541 7.118 1.822-2.186-7.228-6.025 7.228-6.024zM61.555 21.865a1.434 1.434 0 00-.181-.181l-8.542-7.118-1.822 2.187 7.23 6.024-7.23 6.025 1.822 2.186 8.542-7.118a1.424 1.424 0 00.181-2.005z"/></g><defs><clipPath id="clip0"><path fill="#fff" transform="translate(.673)" d="M0 0h85.414v85.414H0z"/></clipPath></defs></svg>
